!!!OTL: Scherzlied. / (Tanzlied.)
!!!ARE: Europa, Mitteleuropa, Deutschland
!!!SCT: A0289
!!!TXL: @@GMH
!!!YEM: Copyright 1995, estate of Helmut Schaffrath.
**kern	**text
*M6/2	*
*met(C|3)	*
*clefC4	*
*k[b-]	*
*F:ion	*
!LO:TX:a:t=jon. F.	!
{2F	Der
=1	=1
1c	Wind
2c	der
1c	wet,
2F	der
=2	=2
1c	Han
2c	der
1c}	kret,
{2c	der
=3	=3
1B-	Fuchs
2c	laufft
1d	in
2d	dem
=4	=4
1.c	krau-
1A}	-te.
{2A	Ach
=5	=5
1A	Mad-
2A	-lin,
1A	thu
2A	das
=6	=6
1c	thür-
2c	-lin
1G}	ʒu,
{2G	der
=7	=7
1G	koch
2B-	der
1A	bringt
2G	die
=8	=8
1.F	lau-
1F}	-ten.
==	==
!!!GTL: Tanz- und Kranzlieder
!!!AGN: Romanze, Ballade, Lied
!! Schmeltzel Quodl. 9
!!!ONB: ESAC (Essen Associative Code) Database: ALTDEU
!!!AMT: compound duple
!!!AIN: vox
!!!EED: Helmut Schaffrath
!!!EEV: 1.0
!!!AMD: Ionian
!!!URL-scan: https://rosdok.uni-rostock.de/mcrviewer/recordIdentifier/rosdok_ppn738218359/iview2/phys_0444.iview2?x=-495.6391625615763&y=1487.4438423682004&scale=0.4629418472063854&rotation=0&layout=singlePageLayout&logicalDiv=log_0012
!!!ENC: Anna Maria Matuszewska
!!!EEV: 2024/12/03
*-	*-
